icons/knowledge-graph-export-16.svg

<?xml version="1.0" encoding="UTF-8"?><svg id="icons" xmlns="http://www.w3.org/2000/svg" viewBox="0 0 16 16"><path d="M8.0791,10.79169l-4.10895-.58667c-.0246-.12274-.06787-.23767-.12048-.34766l2.00769-2.00769c.19556,.09357,.41174,.15033,.64264,.15033,.11011,0,.2168-.01355,.32019-.03619l1.37152,2.31128c.09888-.26587,.24933-.51135,.45624-.71747l.1687-.1687-1.16418-1.94055c.21375-.25928,.34753-.58685,.34753-.94836,0-.06226-.01099-.12152-.01837-.18176l1.48004-.73999c.1015,.09772,.21869,.17731,.34442,.24359l-.42932,3.00696,1.1781-1.1781,.24017-1.68054c.68628-.13751,1.20496-.74402,1.20496-1.47015,0-.82715-.67285-1.5-1.5-1.5-.36163,0-.68933,.13385-.94867,.34778l-2.58154-1.54895c.01959-.09662,.03021-.19653,.03021-.29883,0-.82715-.67285-1.5-1.5-1.5s-1.5,.67285-1.5,1.5c0,.23096,.05676,.4472,.15039,.64282l-2.00787,2.00739c-.1955-.09351-.41168-.15021-.64252-.15021-.82715,0-1.5,.67285-1.5,1.5,0,.75378,.56061,1.37329,1.28564,1.47833l.44794,2.23926c-.43726,.26233-.73358,.73633-.73358,1.28241,0,.82715,.67285,1.5,1.5,1.5,.5755,0,1.07037-.32928,1.32184-.80609l4.4397,.63446c-.12653-.2652-.20001-.55414-.20001-.85669,0-.06116,.01221-.11987,.01758-.17999Zm-6.0791,.20831v-1h1v1h-1ZM1,5h1v1H1v-1ZM6,1v1h-1V1h1Zm5,3v1h-1v-1h1Zm-1.98163,.68176l-1.48004,.73999c-.2207-.21259-.50647-.35406-.82385-.40009l-.448-2.23926c.06451-.0387,.12439-.08252,.18213-.13019l2.5816,1.54895c-.01959,.09662-.03021,.19647-.03021,.29883,0,.06226,.01099,.12152,.01837,.18176Zm-2.01837,2.31824h-1v-1h1v1Zm-1.71417-4.02167l.44781,2.2392c-.21228,.12732-.38885,.30389-.51617,.51617l-2.23914-.44781c-.02197-.15155-.06476-.29498-.12854-.42841l2.00739-2.00787c.13348,.0639,.27704,.10675,.42865,.12872Zm-2.5033,3.28796l2.23914,.44781c.02295,.15826,.06958,.30731,.13794,.44562l-2.01129,1.99365c-.13501-.06537-.28033-.10944-.43408-.13171l-.44775-2.23926c.21222-.12732,.38879-.30389,.51605-.51611Zm9.73505,1.5423l2.80859,2.80908-.70703,.70703-1.61914-1.61951v6.2948h-1v-6.25989l-1.58496,1.58459-.70703-.70703,2.80957-2.80908Z"/><path fill="none" d="M0 0h16v16H0z"/></svg>

<svg xmlns="http://www.w3.org/2000/svg" viewBox="0 0 16 16"><path d="M8.08 10.792l-4.11-.587a1.478 1.478 0 0 0-.12-.348L5.857 7.85c.196.093.412.15.643.15.11 0 .217-.014.32-.036l1.372 2.311c.099-.266.249-.511.456-.717l.169-.17-1.165-1.94A1.48 1.48 0 0 0 8 6.5c0-.062-.011-.122-.018-.182l1.48-.74c.101.098.218.178.344.244l-.43 3.007 1.179-1.178.24-1.68A1.502 1.502 0 0 0 12 4.5c0-.827-.673-1.5-1.5-1.5-.362 0-.69.134-.949.348L6.97 1.798A1.502 1.502 0 0 0 5.5 0C4.673.001 4 .674 4 1.501c0 .231.057.447.15.643L2.143 4.15A1.483 1.483 0 0 0 1.5 4a1.497 1.497 0 0 0-.214 2.978l.448 2.24a1.495 1.495 0 1 0 2.088 1.976l4.44.634a1.983 1.983 0 0 1-.2-.856c0-.061.012-.12.017-.18zM2 11v-1h1v1H2zM1 5h1v1H1V5zm5-4v1H5V1h1zm5 3v1h-1V4h1zm-1.982.682l-1.48.74a1.492 1.492 0 0 0-.824-.4l-.448-2.24a1.49 1.49 0 0 0 .183-.13l2.581 1.55c-.02.096-.03.196-.03.298 0 .062.011.122.018.182zM7 7H6V6h1v1zM5.286 2.978l.448 2.24a1.5 1.5 0 0 0-.517.516l-2.239-.448a1.482 1.482 0 0 0-.128-.429L4.857 2.85c.134.064.277.106.429.128zM2.783 6.266l2.239.448c.023.158.07.307.138.446L3.148 9.153a1.478 1.478 0 0 0-.434-.131l-.448-2.24a1.5 1.5 0 0 0 .517-.516zm9.735 1.543l2.808 2.809-.707.707L13 9.705V16h-1V9.74l-1.585 1.585-.707-.707 2.81-2.81z"/><path fill="none" d="M0 0h16v16H0z"/></svg>
